src/assets/icons/mysql.svg

<svg width="128" height="128" viewBox="0 0 128 128" fill="none" xmlns="http://www.w3.org/2000/svg">
<path d="M2.001 90.458H6.109V74.235L12.469 88.378C13.219 90.09 14.246 90.695 16.261 90.695C18.276 90.695 19.264 90.09 20.014 88.378L26.374 74.235V90.458H30.482V74.262C30.482 72.682 29.85 71.917 28.546 71.523C25.425 70.549 23.331 71.392 22.383 73.499L16.142 87.457L10.099 73.498C9.19 71.392 7.057 70.549 3.936 71.522C2.632 71.917 2 72.681 2 74.261L2.001 90.458ZM33.899 77.252H38.006V86.19C37.968 86.675 38.162 87.815 40.412 87.851C41.56 87.869 49.274 87.851 49.346 87.851V77.208H53.463C53.482 77.208 53.459 91.722 53.459 91.782C53.481 95.362 49.018 96.139 46.96 96.199H33.988V93.435C34.01 93.435 46.951 93.438 46.983 93.434C49.628 93.155 49.315 91.841 49.314 91.399V90.321H40.583C36.521 90.284 33.933 88.511 33.9 86.471C33.898 86.284 33.989 77.342 33.899 77.252Z" fill="white"/>
<path d="M56.6299 90.4579H68.4419C69.8249 90.4579 71.1689 90.1689 72.2349 89.6689C74.0119 88.8529 74.8809 87.7469 74.8809 86.2969V83.2949C74.8809 82.1099 73.8939 81.0029 71.9579 80.2669C70.9309 79.8709 69.6659 79.6619 68.4409 79.6619H63.4629C61.8039 79.6619 61.0139 79.1619 60.8169 78.0559C60.7779 77.9239 60.7779 77.8189 60.7779 77.6869V75.8169C60.7779 75.7119 60.7779 75.6059 60.8169 75.4749C61.0139 74.6319 61.4489 74.3949 62.9109 74.2629L63.3059 74.2369H75.0389V71.4989H63.5039C61.8449 71.4989 60.9759 71.604 60.1859 71.841C57.7369 72.605 56.6689 73.8159 56.6689 75.9229V78.3189C56.6689 80.1629 58.7639 81.7429 62.2789 82.1119C62.6749 82.1369 63.0689 82.1649 63.4639 82.1649H67.7309C67.8889 82.1649 68.0469 82.1649 68.1659 82.1899C69.4699 82.2949 70.0219 82.5329 70.4179 83.0059C70.5194 83.0997 70.5999 83.2138 70.6542 83.3408C70.7085 83.4678 70.7353 83.6048 70.7329 83.7429V86.1399C70.7329 86.4289 70.5359 86.7979 70.1409 87.1139C69.7859 87.4299 69.1929 87.6409 68.4029 87.6939L67.9679 87.7199H56.6299V90.4579ZM100.511 85.6919C100.511 88.5089 102.605 90.0889 106.831 90.4059C107.226 90.4319 107.621 90.4579 108.016 90.4579H118.722V87.7199H107.938C105.528 87.7199 104.62 87.1139 104.62 85.6649V71.4969H100.512L100.511 85.6919ZM77.5029 85.8339V76.0689C77.5029 73.5889 79.2449 72.0839 82.6889 71.6089C83.0559 71.5563 83.4261 71.5299 83.7969 71.5299H91.5959C91.9919 71.5299 92.3479 71.5559 92.7429 71.6089C96.1869 72.0839 97.9299 73.5879 97.9299 76.0689V85.8339C97.9299 87.8479 97.1899 88.9239 95.4849 89.6259L99.5329 93.2789H94.7619L91.4879 90.3229L88.1919 90.5319H83.7969C82.9804 90.5267 82.1685 90.4114 81.3829 90.1889C78.7699 89.4769 77.5029 88.1039 77.5029 85.8339ZM81.9369 85.5969C81.9369 85.7289 81.9759 85.8619 82.0159 86.0199C82.2529 87.1549 83.3229 87.7879 84.9449 87.7879H88.6769L85.2489 84.6929H90.0199L93.0089 87.3929C93.5609 87.0979 93.9229 86.6499 94.0499 86.0729C94.0889 85.9409 94.0889 85.8089 94.0889 85.6769V76.3089C94.0889 76.2039 94.0889 76.0709 94.0499 75.9389C93.8119 74.8829 92.7429 74.2769 91.1599 74.2769H84.9439C83.1239 74.2769 81.9359 75.0689 81.9359 76.3089L81.9369 85.5969Z" fill="white"/>
<path d="M122.336 66.952C119.811 66.883 117.882 67.118 116.232 67.813C115.763 68.011 115.016 68.016 114.94 68.603C115.197 68.874 115.237 69.277 115.442 69.609C115.836 70.246 116.501 71.1 117.094 71.547C117.741 72.036 118.409 72.56 119.105 72.984C120.34 73.738 121.72 74.168 122.911 74.922C123.612 75.368 124.308 75.928 124.993 76.431C125.332 76.678 125.558 77.065 125.999 77.22V77.149C125.768 76.855 125.708 76.451 125.496 76.143L124.562 75.209C123.649 73.997 122.491 72.934 121.258 72.05C120.276 71.345 118.078 70.392 117.668 69.249L117.596 69.178C118.292 69.099 119.108 68.847 119.75 68.675C120.83 68.385 121.795 68.46 122.91 68.172L124.418 67.74V67.454C123.855 66.876 123.452 66.11 122.838 65.587C121.231 64.218 119.475 62.85 117.668 61.708C116.666 61.076 115.427 60.665 114.364 60.129C114.008 59.948 113.38 59.855 113.143 59.554C112.584 58.843 112.281 57.942 111.85 57.113C110.929 55.3221 110.067 53.5018 109.265 51.655C108.721 50.41 108.365 49.182 107.686 48.065C104.425 42.704 100.915 39.468 95.4779 36.288C94.3209 35.611 92.9279 35.345 91.4569 34.996L89.0869 34.852C88.6059 34.651 88.1039 34.061 87.6509 33.775C85.8489 32.637 81.2289 30.162 79.8949 33.417C79.0529 35.471 81.1549 37.475 81.9059 38.516C82.4329 39.246 83.1089 40.064 83.4859 40.885C83.7339 41.425 83.7759 41.966 83.9889 42.537C84.5099 43.943 84.9649 45.474 85.6399 46.773C85.9809 47.431 86.3579 48.124 86.7889 48.712C87.0529 49.072 87.5069 49.232 87.5779 49.789C87.1349 50.409 87.1089 51.373 86.8599 52.158C85.7379 55.697 86.1609 60.096 87.7939 62.715C88.2949 63.52 89.4749 65.244 91.0969 64.582C92.5159 64.004 92.1999 62.213 92.6059 60.632C92.6979 60.275 92.6409 60.011 92.8209 59.771V59.843L94.1139 62.428C95.0709 63.969 96.7679 65.578 98.2069 66.665C98.9529 67.228 99.5409 68.203 100.505 68.532V68.459H100.434C100.246 68.168 99.9549 68.048 99.7149 67.813C99.1529 67.262 98.5279 66.578 98.0639 65.946C96.7549 64.17 95.5989 62.225 94.5449 60.201C94.0419 59.235 93.6049 58.169 93.1809 57.185C93.0169 56.806 93.0189 56.232 92.6789 56.037C92.2129 56.757 91.5299 57.34 91.1699 58.191C90.5959 59.551 90.5219 61.21 90.3089 62.93L90.1649 63.001C89.1639 62.76 88.8129 61.73 88.4409 60.847C87.5009 58.614 87.3259 55.017 88.1539 52.446C88.3679 51.78 89.3349 49.685 88.9429 49.07C88.7559 48.457 88.1389 48.103 87.7949 47.633C87.3436 47.0041 86.9585 46.3301 86.6459 45.622C85.8759 43.881 85.5169 41.926 84.7079 40.165C84.3199 39.323 83.6659 38.472 83.1279 37.724C82.5329 36.894 81.8659 36.284 81.4039 35.282C81.2399 34.926 81.0169 34.355 81.2599 33.989C81.3369 33.742 81.4479 33.639 81.6919 33.558C82.1079 33.237 83.2679 33.665 83.7019 33.845C84.8539 34.324 85.8149 34.779 86.7909 35.425C87.2589 35.736 87.7319 36.336 88.2989 36.502H88.9449C89.9559 36.734 91.0889 36.573 92.0329 36.86C93.7029 37.368 95.1989 38.157 96.5569 39.015C100.696 41.629 104.079 45.349 106.395 49.787C106.767 50.502 106.929 51.183 107.256 51.941C107.918 53.469 108.752 55.042 109.41 56.537C110.067 58.028 110.708 59.533 111.637 60.774C112.125 61.426 114.011 61.776 114.868 62.138C115.469 62.392 116.453 62.657 117.022 62.999C118.109 63.655 119.163 64.436 120.182 65.154C120.691 65.516 122.258 66.303 122.336 66.952ZM90.2369 39.593C89.8015 39.5858 89.367 39.6342 88.9439 39.737V39.808H89.0159C89.2669 40.325 89.7099 40.657 90.0209 41.101L90.7399 42.609L90.8109 42.538C91.2559 42.225 91.4589 41.724 91.4569 40.958C91.2779 40.77 91.2519 40.535 91.0979 40.312C90.8939 40.012 90.4959 39.844 90.2369 39.593Z" fill="white"/>
</svg>

<svg xmlns="http://www.w3.org/2000/svg" viewBox="0 0 128 128"><path fill="#00618A" d="M2.001 90.458h4.108V74.235l6.36 14.143c.75 1.712 1.777 2.317 3.792 2.317s3.003-.605 3.753-2.317l6.36-14.143v16.223h4.108V74.262c0-1.58-.632-2.345-1.936-2.739-3.121-.974-5.215-.131-6.163 1.976l-6.241 13.958-6.043-13.959c-.909-2.106-3.042-2.949-6.163-1.976C2.632 71.917 2 72.681 2 74.261v16.197zm31.898-13.206h4.107v8.938c-.038.485.156 1.625 2.406 1.661 1.148.018 8.862 0 8.934 0V77.208h4.117c.019 0-.004 14.514-.004 14.574.022 3.58-4.441 4.357-6.499 4.417H33.988v-2.764c.022 0 12.963.003 12.995-.001 2.645-.279 2.332-1.593 2.331-2.035v-1.078h-8.731c-4.062-.037-6.65-1.81-6.683-3.85-.002-.187.089-9.129-.001-9.219z"/><path fill="#E48E00" d="M56.63 90.458h11.812c1.383 0 2.727-.289 3.793-.789 1.777-.816 2.646-1.922 2.646-3.372v-3.002c0-1.185-.987-2.292-2.923-3.028-1.027-.396-2.292-.605-3.517-.605h-4.978c-1.659 0-2.449-.5-2.646-1.606-.039-.132-.039-.237-.039-.369v-1.87c0-.105 0-.211.039-.342.197-.843.632-1.08 2.094-1.212l.395-.026h11.733v-2.738H63.504c-1.659 0-2.528.105-3.318.342-2.449.764-3.517 1.975-3.517 4.082v2.396c0 1.844 2.095 3.424 5.61 3.793.396.025.79.053 1.185.053h4.267c.158 0 .316 0 .435.025 1.304.105 1.856.343 2.252.816a.98.98 0 01.315.737v2.397c0 .289-.197.658-.592.974-.355.316-.948.527-1.738.58l-.435.026H56.63v2.738zm43.881-4.766c0 2.817 2.094 4.397 6.32 4.714.395.026.79.052 1.185.052h10.706V87.72h-10.784c-2.41 0-3.318-.606-3.318-2.055V71.497h-4.108v14.195zm-23.008.142v-9.765c0-2.48 1.742-3.985 5.186-4.46a7.8 7.8 0 011.108-.079h7.799c.396 0 .752.026 1.147.079 3.444.475 5.187 1.979 5.187 4.46v9.765c0 2.014-.74 3.09-2.445 3.792l4.048 3.653h-4.771l-3.274-2.956-3.296.209h-4.395a9.075 9.075 0 01-2.414-.343c-2.613-.712-3.88-2.085-3.88-4.355zm4.434-.237c0 .132.039.265.079.423.237 1.135 1.307 1.768 2.929 1.768h3.732l-3.428-3.095h4.771l2.989 2.7c.552-.295.914-.743 1.041-1.32.039-.132.039-.264.039-.396v-9.368c0-.105 0-.238-.039-.37-.238-1.056-1.307-1.662-2.89-1.662h-6.216c-1.82 0-3.008.792-3.008 2.032v9.288z"/><path fill="#00618A" d="M122.336 66.952c-2.525-.069-4.454.166-6.104.861-.469.198-1.216.203-1.292.79.257.271.297.674.502 1.006.394.637 1.059 1.491 1.652 1.938.647.489 1.315 1.013 2.011 1.437 1.235.754 2.615 1.184 3.806 1.938.701.446 1.397 1.006 2.082 1.509.339.247.565.634 1.006.789v-.071c-.231-.294-.291-.698-.503-1.006l-.934-.934c-.913-1.212-2.071-2.275-3.304-3.159-.982-.705-3.18-1.658-3.59-2.801l-.072-.071c.696-.079 1.512-.331 2.154-.503 1.08-.29 2.045-.215 3.16-.503l1.508-.432v-.286c-.563-.578-.966-1.344-1.58-1.867-1.607-1.369-3.363-2.737-5.17-3.879-1.002-.632-2.241-1.043-3.304-1.579-.356-.181-.984-.274-1.221-.575-.559-.711-.862-1.612-1.293-2.441a93.068 93.068 0 01-2.585-5.458c-.544-1.245-.9-2.473-1.579-3.59-3.261-5.361-6.771-8.597-12.208-11.777-1.157-.677-2.55-.943-4.021-1.292l-2.37-.144c-.481-.201-.983-.791-1.436-1.077-1.802-1.138-6.422-3.613-7.756-.358-.842 2.054 1.26 4.058 2.011 5.099.527.73 1.203 1.548 1.58 2.369.248.54.29 1.081.503 1.652.521 1.406.976 2.937 1.651 4.236.341.658.718 1.351 1.149 1.939.264.36.718.52.789 1.077-.443.62-.469 1.584-.718 2.369-1.122 3.539-.699 7.938.934 10.557.501.805 1.681 2.529 3.303 1.867 1.419-.578 1.103-2.369 1.509-3.95.092-.357.035-.621.215-.861v.072l1.293 2.585c.957 1.541 2.654 3.15 4.093 4.237.746.563 1.334 1.538 2.298 1.867v-.073h-.071c-.188-.291-.479-.411-.719-.646-.562-.551-1.187-1.235-1.651-1.867-1.309-1.776-2.465-3.721-3.519-5.745-.503-.966-.94-2.032-1.364-3.016-.164-.379-.162-.953-.502-1.148-.466.72-1.149 1.303-1.509 2.154-.574 1.36-.648 3.019-.861 4.739l-.144.071c-1.001-.241-1.352-1.271-1.724-2.154-.94-2.233-1.115-5.83-.287-8.401.214-.666 1.181-2.761.789-3.376-.187-.613-.804-.967-1.148-1.437a11.222 11.222 0 01-1.149-2.011c-.77-1.741-1.129-3.696-1.938-5.457-.388-.842-1.042-1.693-1.58-2.441-.595-.83-1.262-1.44-1.724-2.442-.164-.356-.387-.927-.144-1.293.077-.247.188-.35.432-.431.416-.321 1.576.107 2.01.287 1.152.479 2.113.934 3.089 1.58.468.311.941.911 1.508 1.077h.646c1.011.232 2.144.071 3.088.358 1.67.508 3.166 1.297 4.524 2.155 4.139 2.614 7.522 6.334 9.838 10.772.372.715.534 1.396.861 2.154.662 1.528 1.496 3.101 2.154 4.596.657 1.491 1.298 2.996 2.227 4.237.488.652 2.374 1.002 3.231 1.364.601.254 1.585.519 2.154.861 1.087.656 2.141 1.437 3.16 2.155.509.362 2.076 1.149 2.154 1.798zM90.237 39.593a5.124 5.124 0 00-1.293.144v.071h.072c.251.517.694.849 1.005 1.293l.719 1.508.071-.071c.445-.313.648-.814.646-1.58-.179-.188-.205-.423-.359-.646-.204-.3-.602-.468-.861-.719z"/></svg>
